X: 33667
T: Rambling Pitchfork, The
R: jig
M: 6/8
K: Dmajor
E|FEF AFF|dFF AFD|GFG ABc|ded cAG|
FEF AFF|dFF AFD|GFG BGB|AFD D2:|
A|d2e fed|ecA AFA|dcd efg|f/g/af gfe|
~d3 fdf|ecA AGF|GFG BGB|AFD D2A|
d2e fed|ecA AFA|dcd efg|f/g/af gfg|
agf gfe|fed ecA|GFG BGB|AFD D2|

